svgs/wynk_music.svg

<svg xmlns="http://www.w3.org/2000/svg" viewBox="0 0 192 192"><path d="M82.83 101.786c-1.343 5.326-.156 11.064 3.298 15.941 3.455 4.877 8.9 8.503 15.129 10.075 6.228 1.572 12.742.963 18.096-1.692 5.354-2.654 9.12-7.142 10.463-12.467 1.343-5.326.156-11.064-3.298-15.941-3.455-4.877-8.9-8.504-15.129-10.075-6.228-1.572-12.742-.963-18.096 1.691-5.353 2.655-9.12 7.143-10.463 12.468Z" fill="none" stroke="#000" stroke-width="12" stroke-linecap="round" stroke-linejoin="round"/><path d="m129.816 113.643 22.563-89.714c-3.738 14.823 26.397 7.556 22.828 21.706m-46.632 22.154a45.359 45.359 0 0 0-30.501-5.8A45.366 45.366 0 0 0 70.99 77.171a45.385 45.385 0 0 0-10.975 29.049 45.358 45.358 0 0 0 36.99 45.13 45.356 45.356 0 0 0 50.826-28.655 45.382 45.382 0 0 0 .295-31.052m-14.103-45.51a67.177 67.177 0 0 0-48.135-3.643 67.198 67.198 0 0 0-38.149 29.585 67.223 67.223 0 0 0-8.464 47.535 67.212 67.212 0 0 0 25.592 40.939 67.187 67.187 0 0 0 46.433 13.203 67.194 67.194 0 0 0 43.295-21.352 67.224 67.224 0 0 0 17.802-44.88 67.222 67.222 0 0 0-16.885-45.233m-50.22-44.286A88.776 88.776 0 0 0 60.896 29.9a88.802 88.802 0 0 0-32.5 32.507A88.834 88.834 0 0 0 16.5 106.814" fill="none" stroke="#000" stroke-width="12" stroke-linecap="round" stroke-linejoin="round"/></svg>

<svg
    xmlns="http://www.w3.org/2000/svg"
    viewBox="0 0 192 192"
    id="vector">
    <path
        id="path"
        d="M 82.83 101.786 C 81.487 107.112 82.674 112.85 86.128 117.727 C 89.583 122.604 95.028 126.23 101.257 127.802 C 107.485 129.374 113.999 128.765 119.353 126.11 C 124.707 123.456 128.473 118.968 129.816 113.643 C 131.159 108.317 129.972 102.579 126.518 97.702 C 123.063 92.825 117.618 89.198 111.389 87.627 C 105.161 86.055 98.647 86.664 93.293 89.318 C 87.94 91.973 84.173 96.461 82.83 101.786 Z"
        fill="none"
        stroke="#000000"
        stroke-width="12"
        stroke-linecap="round"
        stroke-linejoin="round"/>
    <path
        id="path_1"
        d="M 129.816 113.643 L 152.379 23.929 C 148.641 38.752 178.776 31.485 175.207 45.635 M 128.575 67.789 C 119.409 62.328 108.604 60.274 98.074 61.989 C 87.544 63.705 77.95 69.083 70.99 77.171 C 64.031 85.259 60.143 95.55 60.015 106.22 C 59.888 116.891 63.528 127.272 70.292 135.524 C 77.056 143.777 86.519 149.383 97.005 151.35 C 107.491 153.317 118.342 151.522 127.636 146.282 C 136.93 141.043 144.084 132.687 147.831 122.695 C 151.578 112.704 151.682 101.704 148.126 91.643 M 134.023 46.133 C 118.988 38.997 101.825 37.698 85.888 42.49 C 69.951 47.282 56.349 57.83 47.739 72.075 C 39.129 86.319 36.112 103.268 39.275 119.61 C 42.439 135.952 51.564 150.549 64.867 160.549 C 78.171 170.549 94.726 175.257 111.3 173.752 C 127.873 172.246 143.31 164.633 154.595 152.4 C 165.88 140.166 172.227 124.164 172.397 107.52 C 172.566 90.875 166.545 74.747 155.512 62.287 M 105.292 18.001 C 89.707 18.001 74.393 22.105 60.896 29.9 C 47.399 37.694 36.188 48.907 28.396 62.407 C 20.603 75.908 16.5 91.225 16.5 106.814"
        fill="none"
        stroke="#000000"
        stroke-width="12"
        stroke-linecap="round"
        stroke-linejoin="round"/>
</svg>
